!!!Genre:	Gas-nign
!!!Mode:	Freygish
!!!Edition:	2015
!!!Listening/dance:	listening
!!!Free rhythm?:	No
!!!Secondary Modes:	33-48
!!!:	*C:
!!!One_Mode:	no
**kern
*I"P1
*clefG2
*k[b-e-a-]
*G:frey
*M2/4
*>A
=1
8r
8gL
8bn
8ccJ
=2
8dd
8r
4dd
=3
8ee-L
8dd
8cc
8ee-J
=4
8ddL
8cc
8bn
8a-J
=5
8gL
8a-
8bn
8ccJ
=6
8bn
8r
4dd
=7
12ddL
12cc
12bnJ
12ccL
12b
12a-J
=8
8g
8r
(4gg
=9
8ggL)
8ffJ
8aa-L
8ggJ
=10
8ffL
8ee-
8dd
8ccJ
=11
(4.ff
8cc)
=12
8ffL
8ee-
8dd
8ccJ
=13
8bnL
8cc
8dd
8ccJ
=14
8bnL
8f
8g
8a-J
=15
2g
=16
4G
4r
=17:|!|:
*>B
4.dd
8cc
=18
8ddL
8cc
8bn
8a-J
=19
8bnL
8a-J
4g
=20
8r
8gL
8bn
8ddJ
=21
4.gg
8dd
=22
8ggL
8ff
8ee-
8ddJ
=23
4cc
(16ccLL
16dd
16ee-X
16ddJJ)
=24
4cc
8r
8cc
=25
(4.ff
8cc)
=26
8ffL
8ee-
8dd
8ccJ
=27
8bnL
8ccJ
4dd
=28
(8ccL
16ddL)
16ccJJ
8bnL
8a-J
=29
8gL
8f
8dd
8ccJ
=30
8bnL
8f
8g
8a-J
=31
2g
=32
4G
4r
*>bM
*C:
=33:|!
*>C
*k[]
*C:
4ee
4gg
=34
8ffL
16ggL
16ffJJ
8eeL
8ddJ
=35
8ccL
16ddL
16ccJJ
8bL
8aJ
=36
4g
8aL
8bJ
=37
4cc
4ee
=38
8ffL
8ee
8dd
8cc#XJ
=39
2dd
=40
2a
=41
4ff
4aa
=42
8ggL
8ff
8ee
8ddJ
=43
8eeL
8ddJ
4cc
=44
8ccL
16ddL
16ccJJ
8bL
8aJ
=45
8ggL
8ee
8ff
8ddJ
=46
8eeL
8cc
8dd
8bJ
=47
2cc
=48
4c
4r
*>eM
==
*-
